dist/img/pinBig.svg

<svg width="49" height="75" viewBox="0 0 49 75" fill="none" xmlns="http://www.w3.org/2000/svg">
<path d="M2.67172 38.0577C-5.6048 20.6167 6.37432 0 24.4996 0C42.6222 0 54.6067 20.6139 46.3275 38.0577L46.3137 38.0886L46.3001 38.1194L32.6771 69.4022C29.4281 76.8617 19.5766 76.8701 16.3221 69.4022L2.70191 38.1194L2.68816 38.0886L2.67172 38.0577ZM34.8459 26.2051C34.8459 20.2548 30.2913 15.2584 24.4996 15.2584C18.708 15.2584 14.1533 20.2548 14.1533 26.2051C14.1533 32.1525 18.708 37.1488 24.4996 37.1488C30.2913 37.1488 34.8459 32.1525 34.8459 26.2051Z" fill="#FF8A00"/>
</svg>

<svg width="49" height="75" fill="none" xmlns="http://www.w3.org/2000/svg"><path d="M2.672 38.058C-5.605 20.617 6.374 0 24.5 0c18.122 0 30.107 20.614 21.828 38.058l-.014.03-.014.031-13.623 31.283c-3.249 7.46-13.1 7.468-16.355 0L2.702 38.12l-.014-.03-.016-.031Zm32.174-11.853c0-5.95-4.555-10.947-10.346-10.947-5.792 0-10.347 4.997-10.347 10.947 0 5.948 4.555 10.944 10.347 10.944 5.791 0 10.346-4.996 10.346-10.944Z" fill="#FF8A00"/></svg>
